X: 6817
T: Charlie Batchelor's Lost
R: jig
M: 6/8
K: Gmajor
B|:d2d dBd|B2d b2a|g2g gfe|d2c A2B|
cAB cAB|c2f a2f|1 fed cAc|B3B2B:|2 fed cBA|G3G2B||
|:d3 ABc|B2 AG3|d3 ABc|B3 G3|
d3 ABc|B2 AG2g|1 fed cBA|G3G2B:|2 fed cAc|B3B2B||

